src/js/images/icons/medium.svg

<svg height="1280" viewBox="0 0 1280 1280" width="1280" xmlns="http://www.w3.org/2000/svg"><path d="m0 0h1280v1280h-1280zm305.454476 428.082907v380.061923c2.338813 13.710251-1.983135 27.715361-11.641936 37.725263l-90.325361 109.563786v14.44797h256.122579v-14.44797l-90.325361-109.563786c-9.729641-9.993334-14.319209-23.906153-12.444827-37.725263v-328.691356l224.809787 490.428375h26.093993l193.095549-490.428375v390.897906c0 10.434645 0 12.441304-6.824579 19.26396l-69.450168 67.423869v14.44797h337.214678v-14.44797l-67.041488-65.818539c-5.918149-4.511159-8.853852-11.925563-7.627474-19.26396v-483.605725c-1.226378-7.338399 1.709325-14.752805 7.627474-19.263962l68.647278-65.818538v-14.447972h-237.656062l-169.410236 422.603172-192.694103-422.603172h-249.297996v14.447972l80.28921 96.721144c7.882044 7.1044 11.9074 17.537557 10.839043 28.093278z"/></svg>

<?xml version="1.0" encoding="UTF-8"?>
<svg width="1280px" height="1280px" viewBox="0 0 1280 1280" version="1.1" xmlns="http://www.w3.org/2000/svg" xmlns:xlink="http://www.w3.org/1999/xlink">
  <g id="Monogram" fill-rule="nonzero">
    <path d="M0,0 L1280,0 L1280,1280 L0,1280 L0,0 Z M305.454476,428.082907 L305.454476,808.14483 C307.793289,821.855081 303.471341,835.860191 293.81254,845.870093 L203.487179,955.433879 L203.487179,969.881849 L459.609758,969.881849 L459.609758,955.433879 L369.284397,845.870093 C359.554756,835.876759 354.965188,821.96394 356.83957,808.14483 L356.83957,479.453474 L581.649357,969.881849 L607.74335,969.881849 L800.838899,479.453474 L800.838899,870.35138 C800.838899,880.786025 800.838899,882.792684 794.01432,889.61534 L724.564152,957.039209 L724.564152,971.487179 L1061.77883,971.487179 L1061.77883,957.039209 L994.737342,891.22067 C988.819193,886.709511 985.88349,879.295107 987.109868,871.95671 L987.109868,388.350985 C985.88349,381.012586 988.819193,373.59818 994.737342,369.087023 L1063.38462,303.268485 L1063.38462,288.820513 L825.728558,288.820513 L656.318322,711.423685 L463.624219,288.820513 L214.326223,288.820513 L214.326223,303.268485 L294.615433,399.989629 C302.497477,407.094029 306.522833,417.527186 305.454476,428.082907 Z" id="Rectangle-path"></path>
  </g>
</svg>
